symbolic/24x24/apps/dnfdragora.svg

<svg xmlns="http://www.w3.org/2000/svg" width="24" height="24" x="0" y="0" version="1.1">
 <path style="opacity:0.2" d="m 12.556695,1.5000006 v 0.00102 A 2.4096623,2.3876395 0 0 0 11.294977,1.8188957 L 4.2050238,5.8753269 A 2.4096623,2.3876395 0 0 0 3,7.9435336 v 8.1128624 a 2.4096623,2.3876395 0 0 0 1.2050238,2.067179 l 7.0899532,4.056432 a 2.4096623,2.3876395 0 0 0 2.410046,0 l 7.089953,-4.056432 A 2.4096623,2.3876395 0 0 0 22,16.056396 V 7.9435336 A 2.4096623,2.3876395 0 0 0 20.794976,5.8753269 L 13.705023,1.8188959 A 2.4096623,2.3876395 0 0 0 12.556695,1.5000006 Z"/>
 <path style="fill:#e95361" d="M 12.556695,1 V 1.00102 A 2.4096623,2.3876395 0 0 0 11.294977,1.3188951 L 4.2050238,5.3753263 A 2.4096623,2.3876395 0 0 0 3,7.443533 v 8.112863 a 2.4096623,2.3876395 0 0 0 1.2050238,2.067179 l 7.0899532,4.056432 a 2.4096623,2.3876395 0 0 0 2.410046,0 l 7.089953,-4.056432 A 2.4096623,2.3876395 0 0 0 22,15.556396 V 7.443533 A 2.4096623,2.3876395 0 0 0 20.794976,5.3753263 L 13.705023,1.3188953 A 2.4096623,2.3876395 0 0 0 12.556695,1 Z"/>
 <path style="opacity:0.2;fill:none;stroke:#000000;stroke-linecap:round;stroke-linejoin:round" d="m 6.5062677,8.7428792 v 6.4999998 l 6.0000003,3.25 M 6.5062677,8.7428792 12.506268,11.992879 m -6.0000003,-3.2499998 3,-1.625 m 3.0000003,11.3749998 6,-3.25 V 8.7428792 m -6,9.7499998 v -6.5 m 6,-3.2499998 -6,-3.25 -3.0000003,1.625 m 9.0000003,1.625 -3,1.6249998 m -3,1.625 3,-1.625 M 9.5062677,7.1178792 15.506268,10.367879"/>
 <path style="fill:none;stroke:#ffffff;stroke-linecap:round;stroke-linejoin:round" d="m 6.5062677,8.2428794 v 6.4999996 l 6.0000003,3.25 M 6.5062677,8.2428794 12.506268,11.492879 m -6.0000003,-3.2499996 3,-1.625 m 3.0000003,11.3749996 6,-3.25 V 8.2428794 m -6,9.7499996 v -6.5 m 6,-3.2499996 -6,-3.25 -3.0000003,1.625 m 9.0000003,1.625 -3,1.6249994 m -3,1.6250002 3,-1.6250002 M 9.5062677,6.6178794 15.506268,9.8678788"/>
 <path style="opacity:0.2;fill:#ffffff" d="m 12.556641,1 v 0.00195 A 2.4096623,2.3876395 0 0 0 11.294922,1.3183594 L 4.2050781,5.375 A 2.4096623,2.3876395 0 0 0 3,7.4433594 v 0.5 A 2.4096623,2.3876395 0 0 1 4.2050781,5.875 L 11.294922,1.8183594 A 2.4096623,2.3876395 0 0 1 12.556641,1.5019531 V 1.5 a 2.4096623,2.3876395 0 0 1 1.148437,0.3183594 L 20.794922,5.875 A 2.4096623,2.3876395 0 0 1 22,7.9433594 v -0.5 A 2.4096623,2.3876395 0 0 0 20.794922,5.375 L 13.705078,1.3183594 A 2.4096623,2.3876395 0 0 0 12.556641,1 Z"/>
</svg>

<svg xmlns="http://www.w3.org/2000/svg" width="24" height="24"><path style="opacity:.2" d="M12.557 1.5v.001a2.41 2.388 0 0 0-1.262.318l-7.09 4.056A2.41 2.388 0 0 0 3 7.944v8.112a2.41 2.388 0 0 0 1.205 2.068l7.09 4.056a2.41 2.388 0 0 0 2.41 0l7.09-4.056A2.41 2.388 0 0 0 22 16.056V7.944a2.41 2.388 0 0 0-1.205-2.069l-7.09-4.056a2.41 2.388 0 0 0-1.148-.319z"/><path style="fill:#e95361" d="M12.557 1v.001a2.41 2.388 0 0 0-1.262.318l-7.09 4.056A2.41 2.388 0 0 0 3 7.444v8.112a2.41 2.388 0 0 0 1.205 2.068l7.09 4.056a2.41 2.388 0 0 0 2.41 0l7.09-4.056A2.41 2.388 0 0 0 22 15.556V7.444a2.41 2.388 0 0 0-1.205-2.069l-7.09-4.056A2.41 2.388 0 0 0 12.557 1z"/><path style="opacity:.2;fill:none;stroke:#000;stroke-linecap:round;stroke-linejoin:round" d="M6.506 8.743v6.5l6 3.25m-6-9.75 6 3.25m-6-3.25 3-1.625m3 11.375 6-3.25v-6.5m-6 9.75v-6.5m6-3.25-6-3.25-3 1.625m9 1.625-3 1.625m-3 1.625 3-1.625m-6-3.25 6 3.25"/><path style="fill:none;stroke:#fff;stroke-linecap:round;stroke-linejoin:round" d="M6.506 8.243v6.5l6 3.25m-6-9.75 6 3.25m-6-3.25 3-1.625m3 11.375 6-3.25v-6.5m-6 9.75v-6.5m6-3.25-6-3.25-3 1.625m9 1.625-3 1.625m-3 1.625 3-1.625m-6-3.25 6 3.25"/><path style="opacity:.2;fill:#fff" d="M12.557 1v.002a2.41 2.388 0 0 0-1.262.316l-7.09 4.057A2.41 2.388 0 0 0 3 7.443v.5a2.41 2.388 0 0 1 1.205-2.068l7.09-4.057a2.41 2.388 0 0 1 1.262-.316V1.5a2.41 2.388 0 0 1 1.148.318l7.09 4.057A2.41 2.388 0 0 1 22 7.943v-.5a2.41 2.388 0 0 0-1.205-2.068l-7.09-4.057A2.41 2.388 0 0 0 12.557 1z"/></svg>
